star-yellow.svg

<svg width="27" height="27" viewBox="0 0 27 27" fill="none" xmlns="http://www.w3.org/2000/svg">
<path d="M13.2288 1.5461L17.0748 9.23811L17.2257 9.53974L17.5603 9.58157L25.1885 10.5351L19.9315 16.4301L19.7301 16.656L19.7805 16.9545L21.2201 25.4763L13.5106 21.6215L13.2288 21.4806L12.947 21.6215L5.23964 25.4752L6.69174 16.9554L6.74277 16.656L6.54035 16.4296L1.27087 10.5349L8.89738 9.58157L9.23201 9.53974L9.38283 9.23811L13.2288 1.5461Z" fill="#FFC700" stroke="#0095A7" stroke-width="1.26026"/>
</svg>

<svg width="27" height="27" fill="none" xmlns="http://www.w3.org/2000/svg">
    <path d="m13.229 1.546 3.846 7.692.15.302.335.042 7.629.953-5.258 5.895-.2.226.05.299 1.44 8.521-7.71-3.854-.282-.141-.282.14-7.707 3.854 1.452-8.52.05-.299-.202-.226-5.27-5.895 7.627-.953.335-.042.15-.302 3.847-7.692Z"
          fill="#FFC700" stroke="#0095A7" stroke-width="1.26"/>
</svg>
